icon-svg/other-watching-movie.svg

<?xml version="1.0" encoding="UTF-8"?>
<svg width="32px" height="32px" viewBox="0 0 32 32" fill="#44739e" version="1.1" xmlns="http://www.w3.org/2000/svg" xmlns:xlink="http://www.w3.org/1999/xlink">
            <path d="M29,5 C29.553,5 30,5.447 30,6 L30,20 C30,20.552 29.553,21 29,21 L3,21 C2.447,21 2,20.552 2,20 L2,6 C2,5.447 2.447,5 3,5 L29,5 Z M16,23.0215 C18.484,23.0215 20.668,24.3045 21.919,26.2425 C22.135,26.5775 21.894,27.0215 21.494,27.0215 L10.506,27.0215 C10.106,27.0215 9.865,26.5775 10.081,26.2425 C11.332,24.3045 13.516,23.0215 16,23.0215 Z"></path>

</svg>

<svg xmlns="http://www.w3.org/2000/svg" fill="#44739e" viewBox="0 0 24 24"><path d="M29 5c.553 0 1 .447 1 1v14c0 .552-.447 1-1 1H3c-.553 0-1-.448-1-1V6c0-.553.447-1 1-1zM16 23.0215c2.484 0 4.668 1.283 5.919 3.221.216.335-.025.779-.425.779H10.506c-.4 0-.641-.444-.425-.779 1.251-1.938 3.435-3.221 5.919-3.221"/></svg>
